assets/svg/networks/wallet_infinite.svg

<svg width="36" height="36" viewBox="0 0 36 36" fill="none" xmlns="http://www.w3.org/2000/svg">
<rect width="36" height="36" rx="10" fill="#0166FF"/>
<path d="M23 13C20.906 13 19.389 14.567 17.999 16.346C16.609 14.567 15.093 13 13 13C10.243 13 8.00001 15.243 8.00001 18C7.99841 18.6561 8.12647 19.3061 8.37686 19.9126C8.62724 20.5191 8.99501 21.0701 9.45902 21.534C9.92119 22 10.4713 22.3695 11.0775 22.6212C11.6836 22.8729 12.3337 23.0016 12.99 23C15.079 22.995 16.607 21.428 17.998 19.649C19.389 21.431 20.906 23 23 23C25.757 23 28 20.757 28 18C28 15.243 25.757 13 23 13ZM12.998 21H12.99C12.191 21 11.44 20.688 10.876 20.122C10.458 19.7016 10.1738 19.1669 10.0591 18.5852C9.94434 18.0035 10.0043 17.4009 10.2314 16.8533C10.4585 16.3057 10.8426 15.8375 11.3352 15.5077C11.8279 15.1779 12.4072 15.0012 13 15C14.33 15 15.56 16.438 16.746 17.998C15.558 19.557 14.328 20.997 12.998 21ZM23 21C21.67 21 20.439 19.56 19.251 17.998C20.438 16.438 21.668 15 23 15C24.654 15 26 16.346 26 18C26 19.654 24.654 21 23 21Z" fill="white"/>
</svg>

<svg xmlns="http://www.w3.org/2000/svg" width="36" height="36" fill="none"><rect width="36" height="36" fill="#0166FF" rx="10"/><path fill="#fff" d="M23 13c-2.094 0-3.611 1.567-5.001 3.346C16.609 14.567 15.093 13 13 13a5.006 5.006 0 0 0-4.623 6.913 5 5 0 0 0 1.082 1.621A4.96 4.96 0 0 0 12.99 23c2.089-.005 3.617-1.572 5.008-3.351C19.389 21.431 20.906 23 23 23c2.757 0 5-2.243 5-5s-2.243-5-5-5m-10.002 8h-.008c-.799 0-1.55-.312-2.114-.878A3.004 3.004 0 0 1 13 15c1.33 0 2.56 1.438 3.746 2.998-1.188 1.559-2.418 2.999-3.748 3.002M23 21c-1.33 0-2.561-1.44-3.749-3.002C20.438 16.438 21.668 15 23 15c1.654 0 3 1.346 3 3s-1.346 3-3 3"/></svg>
